docs/.gitbook/assets/icon-globe-01-16@dark.svg

<svg width="32" height="32" viewBox="0 0 16 16" fill="none" xmlns="http://www.w3.org/2000/svg">
<rect x="0" y="0" width="16" height="16" fill="#181c1f"/>
<path fill-rule="evenodd" clip-rule="evenodd" d="M2.55071 7.25H4.27885C4.39904 5.6844 4.88114 4.28085 5.46856 3.21784C5.49523 3.16957 5.5222 3.12186 5.54943 3.07475C3.95496 3.86962 2.80078 5.41598 2.55071 7.25ZM8 1C4.13401 1 1 4.13401 1 8C1 11.866 4.13401 15 8 15C11.866 15 15 11.866 15 8C15 4.13401 11.866 1 8 1ZM8 2.50691C7.96168 2.52381 7.83658 2.5819 7.62986 2.78115C7.36788 3.03367 7.06698 3.42661 6.78144 3.94333C6.3026 4.80985 5.90061 5.96331 5.78408 7.25H10.2159C10.0994 5.96331 9.6974 4.80985 9.21856 3.94333C8.93302 3.42661 8.63212 3.03367 8.37014 2.78115C8.16342 2.5819 8.03832 2.52381 8 2.50691ZM11.7211 7.25C11.601 5.6844 11.1189 4.28085 10.5314 3.21784C10.5048 3.16957 10.4778 3.12186 10.4506 3.07475C12.045 3.86962 13.1992 5.41598 13.4493 7.25H11.7211ZM10.2159 8.75H5.78408C5.90061 10.0367 6.3026 11.1901 6.78144 12.0567C7.06698 12.5734 7.36788 12.9663 7.62986 13.2188C7.83658 13.4181 7.96168 13.4762 8 13.4931C8.03832 13.4762 8.16342 13.4181 8.37014 13.2188C8.63212 12.9663 8.93302 12.5734 9.21856 12.0567C9.6974 11.1901 10.0994 10.0367 10.2159 8.75ZM5.54944 12.9252C5.5222 12.8781 5.49523 12.8304 5.46856 12.7822C4.88114 11.7192 4.39904 10.3156 4.27885 8.75H2.55071C2.80078 10.584 3.95496 12.1304 5.54944 12.9252ZM11.7211 8.75H13.4493C13.1992 10.584 12.045 12.1304 10.4506 12.9252C10.4778 12.8781 10.5048 12.8304 10.5314 12.7822C11.1189 11.7192 11.601 10.3156 11.7211 8.75Z" fill="#fff"/>
</svg>

<svg xmlns="http://www.w3.org/2000/svg" width="32" height="32" fill="none" viewBox="0 0 16 16"><path fill="#181c1f" d="M0 0h16v16H0z"/><path fill="#fff" fill-rule="evenodd" d="M2.55 7.25h1.73a10.05 10.05 0 0 1 1.27-4.175A5.5 5.5 0 0 0 2.551 7.25M8 1a7 7 0 1 0 0 14A7 7 0 0 0 8 1m0 1.507c-.038.017-.163.075-.37.274-.262.253-.563.646-.849 1.162a8.55 8.55 0 0 0-.997 3.307h4.432a8.55 8.55 0 0 0-.997-3.307c-.286-.516-.587-.91-.849-1.162-.207-.2-.332-.257-.37-.274m3.721 4.743a10.05 10.05 0 0 0-1.27-4.175 5.5 5.5 0 0 1 2.998 4.175zm-1.505 1.5H5.784a8.55 8.55 0 0 0 .997 3.307c.286.516.587.91.849 1.162.207.2.332.257.37.274.038-.017.163-.075.37-.274.262-.253.563-.646.849-1.162a8.6 8.6 0 0 0 .997-3.307m-4.667 4.175-.08-.143a10.05 10.05 0 0 1-1.19-4.032H2.55a5.5 5.5 0 0 0 2.998 4.175M11.72 8.75h1.728a5.5 5.5 0 0 1-2.998 4.175l.08-.143a10.05 10.05 0 0 0 1.19-4.032" clip-rule="evenodd"/></svg>
